;FLAVOR:Marlin
;TIME:51742
;Filament used: 39.1864m
;Layer height: 0.2
;MINX:21.501
;MINY:36.501
;MINZ:0.2
;MAXX:213.5
;MAXY:198.5
;MAXZ:35
;Generated with Cura_SteamEngine 5.2.1
M140 S50
M105
M190 S50
M104 S200
M105
M109 S200
M82 ;absolute extrusion mode
; Ender 3 Custom Start G-code
G92 E0 ; Reset Extruder
G28G29 ; Home all axes
G1 Z2.0 F3000 ; Move Z Axis up little to prevent scratching of Heat Bed
G1 X0.1 Y20 Z0.3 F5000.0 ; Move to start position
G1 X0.1 Y200.0 Z0.3 F1500.0 E15 ; Draw the first line
G1 X0.4 Y200.0 Z0.3 F5000.0 ; Move to side a little
G1 X0.4 Y20 Z0.3 F1500.0 E30 ; Draw the second line
G92 E0 ; Reset Extruder
G1 Z2.0 F3000 ; Move Z Axis up little to prevent scratching of Heat Bed
G1 X5 Y20 Z0.3 F5000.0 ; Move over to prevent blob squish
G92 E0
G92 E0
G1 F2700 E-5
;LAYER_COUNT:175
;LAYER:0
M107
G0 F6000 X27.921 Y39.233 Z0.2
;TYPE:SKIRT
G1 F2700 E0
G1 F1200 X28.697 Y38.706 E0.0312
G1 X29.514 Y38.247 E0.06237
G1 X30.098 Y37.973 E0.08382
G1 X30.705 Y37.709 E0.10584
G1 X31.36 Y37.442 E0.12936
G1 X32.245 Y37.131 E0.16056
G1 X33.153 Y36.897 E0.19175
G1 X33.806 Y36.779 E0.21382
G1 X34.485 Y36.677 E0.23666
G1 X35.262 Y36.581 E0.2627
G1 X36.164 Y36.515 E0.29278
G1 X36.767 Y36.501 E0.31284
G1 X197.958 Y36.502 E5.67408
G1 X198.656 Y36.512 E5.69729
G1 X199.619 Y36.568 E5.72938
G1 X200.446 Y36.663 E5.75706
G1 X201.081 Y36.755 E5.7784
G1 X202.003 Y36.929 E5.80961
G1 X202.906 Y37.18 E5.84078
G1 X203.541 Y37.408 E5.86322
G1 X204.157 Y37.651 E5.88525
G1 X204.814 Y37.928 E5.90896
G1 X205.659 Y38.335 E5.94016
G1 X206.467 Y38.812 E5.97137
G1 X207.017 Y39.194 E5.99364
G1 X207.81 Y39.786 E6.02655
G1 X208.112 Y40.024 E6.03934
G1 X208.823 Y40.636 E6.07054
G1 X209.479 Y41.306 E6.10173
G1 X209.909 Y41.813 E6.12384
G1 X210.311 Y42.318 E6.14531
G1 X210.764 Y42.917 E6.17029
G1 X211.292 Y43.693 E6.20151
G1 X211.751 Y44.51 E6.23268
G1 X212.032 Y45.107 E6.25462
G1 X212.295 Y45.713 E6.27659
G1 X212.558 Y46.36 E6.29982
G1 X212.869 Y47.245 E6.33102
G1 X213.103 Y48.153 E6.36221
G1 X213.221 Y48.806 E6.38428
G1 X213.323 Y49.485 E6.40712
G1 X213.419 Y50.258 E6.43302
G1 X213.486 Y51.203 E6.46453
G1 X213.5 Y51.832 E6.48546
G1 X213.499 Y186.9 E10.97784
G1 X213.49 Y187.627 E11.00202
G1 X213.439 Y188.564 E11.03323
G1 X213.307 Y189.492 E11.06441
G1 X213.098 Y190.406 E11.09559
G1 X212.811 Y191.299 E11.12679
G1 X212.449 Y192.165 E11.15801
G1 X212.015 Y192.996 E11.18919
G1 X211.511 Y193.787 E11.22039
G1 X210.942 Y194.532 E11.25157
G1 X210.311 Y195.227 E11.28279
G1 X209.624 Y195.865 E11.31397
G1 X208.885 Y196.442 E11.34515
G1 X208.099 Y196.954 E11.37635
G1 X207.273 Y197.397 E11.40753
G1 X206.411 Y197.769 E11.43876
G1 X205.522 Y198.065 E11.46992
G1 X204.61 Y198.285 E11.50112
G1 X203.683 Y198.426 E11.53231
G1 X202.799 Y198.487 E11.56178
G1 X202.17 Y198.5 E11.58271
G1 X37.032 Y198.498 E17.07522
G1 X36.31 Y198.487 E17.09924
G1 X35.312 Y198.426 E17.13249
G1 X34.554 Y198.337 E17.15788
G1 X33.919 Y198.245 E17.17922
G1 X32.997 Y198.071 E17.21042
G1 X32.094 Y197.82 E17.2416
G1 X31.459 Y197.592 E17.26404
G1 X30.843 Y197.349 E17.28606
G1 X30.186 Y197.072 E17.30978
G1 X29.341 Y196.665 E17.34097
G1 X28.533 Y196.188 E17.37218
G1 X27.983 Y195.806 E17.39445
G1 X27.183 Y195.208 E17.42767
G1 X26.879 Y194.968 E17.44055
G1 X26.168 Y194.356 E17.47175
G1 X25.512 Y193.685 E17.50297
G1 X25.085 Y193.181 E17.52494
G1 X24.685 Y192.678 E17.54631
G1 X24.236 Y192.083 E17.5711
G1 X23.708 Y191.307 E17.60232
G1 X23.249 Y190.49 E17.63349
G1 X22.968 Y189.893 E17.65544
G1 X22.705 Y189.287 E17.67741
G1 X22.442 Y188.64 E17.70064
G1 X22.131 Y187.755 E17.73184
G1 X21.897 Y186.847 E17.76302
G1 X21.779 Y186.194 E17.78509
G1 X21.677 Y185.515 E17.80793
G1 X21.581 Y184.738 E17.83397
G1 X21.514 Y183.815 E17.86475
G1 X21.501 Y183.218 E17.88461
G1 X21.502 Y52.011 E22.24857
G1 X21.512 Y51.333 E22.27113
G1 X21.571 Y50.35 E22.30388
G1 X21.665 Y49.538 E22.33107
G1 X21.758 Y48.903 E22.35241
G1 X21.933 Y47.982 E22.38359
G1 X22.187 Y47.079 E22.41479
G1 X22.402 Y46.48 E22.43596
G1 X22.776 Y45.54 E22.46961
G1 X22.928 Y45.186 E22.48242
G1 X23.335 Y44.341 E22.51362
G1 X23.812 Y43.533 E22.54483
G1 X24.194 Y42.983 E22.5671
G1 X24.792 Y42.183 E22.60032
G1 X25.032 Y41.879 E22.6132
G1 X25.644 Y41.168 E22.6444
G1 X26.315 Y40.512 E22.67561
G1 X26.819 Y40.085 E22.69758
G1 X27.322 Y39.685 E22.71896
G1 X27.921 Y39.233 E22.74392
G0 F6000 X28.16 Y39.554
G1 F1200 X28.921 Y39.037 E22.77452
G1 X29.725 Y38.589 E22.80513
G1 X30.257 Y38.34 E22.82467
G1 X31.16 Y37.952 E22.85735
G1 X31.508 Y37.813 E22.86982
G1 X32.377 Y37.509 E22.90044
G1 X33.269 Y37.282 E22.93105
G1 X33.865 Y37.175 E22.95119
G1 X34.908 Y37.024 E22.98624
G1 X35.308 Y36.978 E22.99964
G1 X36.177 Y36.915 E23.02862
G1 X36.767 Y36.901 E23.04824
G1 X197.952 Y36.902 E28.40928
G1 X198.65 Y36.912 E28.4325
G1 X199.578 Y36.966 E28.46341
G1 X200.389 Y37.059 E28.49057
G1 X201.024 Y37.151 E28.51191
G1 X201.928 Y37.322 E28.54251
G1 X202.815 Y37.571 E28.57315
G1 X203.394 Y37.78 E28.59362
G1 X204.01 Y38.023 E28.61565
G1 X204.656 Y38.296 E28.63897
G1 X205.486 Y38.696 E28.66962
G1 X206.277 Y39.166 E28.70022
G1 X206.78 Y39.515 E28.72058
G1 X207.307 Y39.905 E28.74239
G1 X207.864 Y40.339 E28.76587
G1 X208.562 Y40.939 E28.79649
G1 X209.205 Y41.598 E28.82711
G1 X209.596 Y42.062 E28.84729
G1 X209.998 Y42.567 E28.86876
G1 X210.443 Y43.156 E28.89331
G1 X210.961 Y43.918 E28.92396
G1 X211.41 Y44.721 E28.95456
G1 X211.665 Y45.266 E28.97457
G1 X211.928 Y45.872 E28.99654
G1 X212.187 Y46.508 E29.01938
G1 X212.491 Y47.377 E29.05
G1 X212.718 Y48.269 E29.08062
G1 X212.825 Y48.865 E29.10076
G1 X212.927 Y49.544 E29.1236
G1 X213.021 Y50.304 E29.14907
G1 X213.087 Y51.214 E29.17941
G1 X213.1 Y51.832 E29.19997
G1 X213.099 Y186.895 E33.69218
G1 X213.09 Y187.622 E33.71637
G1 X213.039 Y188.541 E33.74698
G1 X212.908 Y189.453 E33.77762
G1 X212.698 Y190.349 E33.80823
G1 X212.412 Y191.224 E33.83885
G1 X212.051 Y192.071 E33.86947
G1 X211.617 Y192.883 E33.9001
G1 X211.115 Y193.655 E33.93073
G1 X210.547 Y194.38 E33.96136
G1 X209.919 Y195.053 E33.99197
G1 X209.235 Y195.669 E34.02259
G1 X208.5 Y196.223 E34.0532
G1 X207.72 Y196.712 E34.08382
G1 X206.9 Y197.131 E34.11445
G1 X206.047 Y197.477 E34.14507
G1 X205.167 Y197.748 E34.17569
G1 X204.267 Y197.941 E34.20631
G1 X203.353 Y198.056 E34.23694
G1 X202.788 Y198.087 E34.25577
G1 X202.17 Y198.1 E34.27632
G1 X37.039 Y198.098 E39.7686
G1 X36.317 Y198.087 E39.79262
G1 X35.354 Y198.028 E39.82471
G1 X34.611 Y197.941 E39.84959
G1 X33.976 Y197.849 E39.87093
G1 X33.072 Y197.678 E39.90153
G1 X32.185 Y197.429 E39.93217
G1 X31.606 Y197.22 E39.95265
G1 X30.99 Y196.977 E39.97467
G1 X30.344 Y196.704 E39.998
G1 X29.514 Y196.304 E40.02864
G1 X28.723 Y195.834 E40.05925
G1 X28.22 Y195.485 E40.07961
G1 X27.693 Y195.095 E40.10141
G1 X27.127 Y194.654 E40.12528
G1 X26.43 Y194.052 E40.15591
G1 X25.787 Y193.393 E40.18653
G1 X25.399 Y192.932 E40.20658
G1 X24.999 Y192.429 E40.22795
G1 X24.557 Y191.844 E40.25234
G1 X24.039 Y191.082 E40.28298
G1 X23.59 Y190.279 E40.31358
G1 X23.335 Y189.734 E40.33359
G1 X23.072 Y189.128 E40.35557
G1 X22.813 Y188.492 E40.37841
G1 X22.509 Y187.623 E40.40903
G1 X22.282 Y186.731 E40.43964
G1 X22.175 Y186.135 E40.45978
G1 X22.024 Y185.092 E40.49483
G1 X21.978 Y184.692 E40.50822
G1 X21.914 Y183.803 E40.53787
G1 X21.901 Y183.218 E40.55733
G1 X21.902 Y52.017 E44.92109
G1 X21.912 Y51.339 E44.94365
G1 X21.969 Y50.391 E44.97523
G1 X22.061 Y49.596 E45.00185
G1 X22.154 Y48.961 E45.0232
G1 X22.327 Y48.057 E45.05381
G1 X22.577 Y47.171 E45.08443
G1 X22.774 Y46.627 E45.10367
G1 X23.016 Y46.01 E45.12572
G1 X23.296 Y45.344 E45.14975
G1 X23.696 Y44.514 E45.18039
G1 X24.166 Y43.723 E45.21099
G1 X24.515 Y43.22 E45.23136
G1 X24.905 Y42.693 E45.25316
G1 X25.346 Y42.127 E45.27703
G1 X25.948 Y41.43 E45.30766
G1 X26.607 Y40.787 E45.33828
G1 X27.068 Y40.399 E45.35832
G1 X27.571 Y39.999 E45.3797
G1 X28.16 Y39.554 E45.40425
G0 F6000 X28.398 Y39.875
G1 F1200 X29.146 Y39.369 E45.43429
G1 X29.936 Y38.931 E45.46433
G1 X30.417 Y38.706 E45.48199
G1 X31.024 Y38.442 E45.50401
G1 X31.657 Y38.185 E45.52673
G1 X32.509 Y37.887 E45.55675
G1 X33.385 Y37.666 E45.5868
G1 X33.925 Y37.57 E45.60504
G1 X34.604 Y37.468 E45.62788
G1 X35.354 Y37.376 E45.65301
G1 X36.19 Y37.314 E45.68089
G1 X36.767 Y37.301 E45.70009
G1 X197.946 Y37.302 E51.06093
G1 X198.644 Y37.312 E51.08414
G1 X199.537 Y37.364 E51.11389
G1 X200.332 Y37.454 E51.14051
G1 X200.967 Y37.546 E51.16185
G1 X201.854 Y37.715 E51.19188
G1 X202.722 Y37.962 E51.22189
G1 X203.247 Y38.153 E51.24048
G1 X204.144 Y38.511 E51.2726
G1 X204.498 Y38.663 E51.28541
G1 X205.312 Y39.056 E51.31548
G1 X206.087 Y39.519 E51.3455
G1 X206.542 Y39.837 E51.36397
G1 X207.069 Y40.227 E51.38577
G1 X207.616 Y40.653 E51.40883
G1 X208.3 Y41.243 E51.43888
G1 X208.929 Y41.891 E51.46891
G1 X209.283 Y42.311 E51.48718
G1 X209.685 Y42.816 E51.50865
G1 X210.123 Y43.395 E51.5328
G1 X210.629 Y44.143 E51.56283
G1 X211.068 Y44.932 E51.59286
G1 X211.298 Y45.425 E51.61096
G1 X211.561 Y46.031 E51.63293
G1 X211.815 Y46.657 E51.6554
G1 X212.113 Y47.509 E51.68542
G1 X212.334 Y48.385 E51.71547
G1 X212.43 Y48.925 E51.73371
G1 X212.532 Y49.604 E51.75655
G1 X212.624 Y50.35 E51.78155
G1 X212.687 Y51.226 E51.81076
G1 X212.7 Y51.832 E51.83092
G1 X212.699 Y186.89 E56.32297
G1 X212.69 Y187.617 E56.34715
G1 X212.639 Y188.519 E56.3772
G1 X212.508 Y189.413 E56.40725
G1 X212.299 Y190.291 E56.43727
G1 X212.013 Y191.148 E56.46732
G1 X211.652 Y191.976 E56.49736
G1 X211.22 Y192.768 E56.52737
G1 X210.719 Y193.52 E56.55742
G1 X210.153 Y194.224 E56.58746
G1 X209.528 Y194.875 E56.61748
G1 X208.847 Y195.469 E56.64754
G1 X208.116 Y196 E56.67759
G1 X207.342 Y196.464 E56.7076
G1 X206.529 Y196.858 E56.73765
G1 X205.685 Y197.178 E56.76767
G1 X204.815 Y197.423 E56.79773
G1 X203.928 Y197.589 E56.82775
G1 X202.777 Y197.687 E56.86617
G1 X202.17 Y197.7 E56.88636
G1 X37.045 Y197.698 E62.37844
G1 X36.323 Y197.687 E62.40246
G1 X35.397 Y197.631 E62.43331
G1 X34.668 Y197.546 E62.45772
G1 X34.033 Y197.454 E62.47906
G1 X33.146 Y197.285 E62.5091
G1 X32.278 Y197.038 E62.53911
G1 X31.753 Y196.847 E62.55769
G1 X30.856 Y196.489 E62.58982
G1 X30.502 Y196.337 E62.60263
G1 X29.688 Y195.944 E62.63269
G1 X28.913 Y195.481 E62.66272
G1 X28.458 Y195.163 E62.68118
G1 X27.931 Y194.773 E62.70299
G1 X27.375 Y194.34 E62.72643
G1 X26.691 Y193.749 E62.75649
G1 X26.063 Y193.101 E62.78651
G1 X25.712 Y192.683 E62.80466
G1 X25.312 Y192.18 E62.82604
G1 X24.877 Y191.605 E62.85002
G1 X24.371 Y190.857 E62.88005
G1 X23.932 Y190.068 E62.91008
G1 X23.702 Y189.575 E62.92818
G1 X23.439 Y188.969 E62.95015
G1 X23.185 Y188.343 E62.97262
G1 X22.887 Y187.491 E63.00264
G1 X22.666 Y186.615 E63.03269
G1 X22.57 Y186.075 E63.05093
G1 X22.468 Y185.396 E63.07377
G1 X22.376 Y184.646 E63.0989
G1 X22.314 Y183.791 E63.12741
G1 X22.301 Y183.218 E63.14648
G1 X22.302 Y52.023 E67.51004
G1 X22.312 Y51.345 E67.53259
G1 X22.366 Y50.433 E67.56298
G1 X22.457 Y49.654 E67.58906
G1 X22.55 Y49.019 E67.61041
G1 X22.72 Y48.132 E67.64045
G1 X22.968 Y47.264 E67.67047
G1 X23.146 Y46.773 E67.68784
G1 X23.388 Y46.156 E67.70989
G1 X23.663 Y45.502 E67.73348
G1 X24.056 Y44.688 E67.76355
G1 X24.519 Y43.913 E67.79357
G1 X24.837 Y43.458 E67.81204
G1 X25.227 Y42.931 E67.83384
G1 X25.66 Y42.375 E67.85728
G1 X26.251 Y41.691 E67.88735
G1 X26.899 Y41.063 E67.91736
G1 X27.317 Y40.712 E67.93552
G1 X27.82 Y40.312 E67.95689
G1 X28.398 Y39.875 E67.98099
G1 F2700 E62.98099
;MESH:Potinho de agua .3mf
G0 F6000 X31.845 Y51.385
G0 X36.535 Y186.899
;TYPE:WALL-INNER
G1 F2700 E67.98099
G1 F1200 X201.9 Y186.899 E73.48105
G1 X201.9 Y51.78 E77.97513
G1 X201.9 Y51.539 E77.98315
G1 X201.778 Y50.619 E78.01401
G1 X201.44 Y49.806 E78.0433
G1 X200.901 Y49.102 E78.07279
G1 X200.194 Y48.56 E78.10242
G1 X199.38 Y48.222 E78.13173
G1 X198.465 Y48.102 E78.16243
G1 X36.541 Y48.101 E83.54804
G1 X35.62 Y48.222 E83.57893
G1 X34.806 Y48.56 E83.60825
G1 X34.099 Y49.102 E83.63788
G1 X33.56 Y49.806 E83.66737
G1 X33.222 Y50.618 E83.69662
G1 X33.101 Y51.535 E83.72739
G1 X33.1 Y183.461 E88.11526
G1 X33.222 Y184.38 E88.1461
G1 X33.56 Y185.194 E88.17541
G1 X34.099 Y185.898 E88.2049
G1 X34.806 Y186.44 E88.23453
G1 X35.62 Y186.778 E88.26385
G1 X36.535 Y186.899 E88.29455
G0 F6000 X36.509 Y187.299
;TYPE:WALL-OUTER
G1 F1200 X202.3 Y187.299 E93.80878
G1 X202.3 Y51.78 E98.31616
G1 X202.3 Y51.513 E98.32504
G1 X202.168 Y50.514 E98.35855
G1 X201.79 Y49.604 E98.39133
G1 X201.187 Y48.817 E98.4243
G1 X200.396 Y48.21 E98.45747
G1 X199.484 Y47.832 E98.4903
G1 X198.491 Y47.702 E98.52361
G1 X36.515 Y47.701 E103.91095
G1 X35.516 Y47.832 E103.94446
G1 X34.604 Y48.21 E103.9773
G1 X33.813 Y48.817 E104.01046
G1 X33.21 Y49.604 E104.04344
G1 X32.832 Y50.514 E104.07621
G1 X32.701 Y51.509 E104.10959
G1 X32.7 Y183.487 E108.4992
G1 X32.832 Y184.484 E108.53265
G1 X33.21 Y185.396 E108.56548
G1 X33.813 Y186.183 E108.59846
G1 X34.604 Y186.79 E108.63162
G1 X35.516 Y187.168 E108.66446
G1 X36.509 Y187.299 E108.69777
G0 F6000 X36.56 Y186.539
;TYPE:SKIN
G1 F1200 X201.54 Y186.539 E114.18503
G1 X201.54 Y51.782 E118.66706
G1 X201.54 Y51.562 E118.67438
G1 X201.426 Y50.71 E118.70297
G1 X201.127 Y49.991 E118.72887
G1 X200.646 Y49.362 E118.75521
G1 X200.009 Y48.873 E118.78192
G1 X199.286 Y48.574 E118.80794
G1 X198.44 Y48.462 E118.83632
G1 X36.566 Y48.462 E124.22027
G1 X35.714 Y48.574 E124.24885
G1 X34.991 Y48.873 E124.27488
G1 X34.353 Y49.361 E124.30159
G1 X33.873 Y49.991 E124.32794
G1 X33.574 Y50.71 E124.35384
G1 X33.462 Y51.56 E124.38235
G1 X33.461 Y183.438 E128.76863
G1 X33.574 Y184.286 E128.79708
G1 X33.873 Y185.009 E128.82311
G1 X34.353 Y185.638 E128.84942
G1 X34.991 Y186.127 E128.87616
G1 X35.714 Y186.426 E128.90218
G1 X36.56 Y186.539 E128.93057
G0 F6000 X36.524 Y186.796
G0 X35.663 Y186.621
G0 X34.888 Y186.3
G0 X34.213 Y185.783
G0 X33.799 Y185.241
G0 X33.349 Y184.423
G0 X33.774 Y184.247
G1 F1200 X35.751 Y186.223 E129.02354
G0 F6000 X36.409 Y186.316
G1 F1200 X33.682 Y183.588 E129.15183
G0 F6000 X33.66 Y183.001
G1 F1200 X36.997 Y186.338 E129.30879
G0 F6000 X37.562 Y186.338
G1 F1200 X33.66 Y182.435 E129.49236
G0 F6000 X33.66 Y181.869
G1 F1200 X38.128 Y186.338 E129.70254
G0 F6000 X38.694 Y186.338
G1 F1200 X33.66 Y181.304 E129.93932
G0 F6000 X33.66 Y180.738
G1 F1200 X39.259 Y186.338 E130.20271
G0 F6000 X39.825 Y186.338
G1 F1200 X33.66 Y180.172 E130.49271
G0 F6000 X33.66 Y179.607
G1 F1200 X40.391 Y186.338 E130.80932
G0 F6000 X40.957 Y186.338
G1 F1200 X33.66 Y179.041 E131.15255
G0 F6000 X33.66 Y178.475
G1 F1200 X41.522 Y186.338 E131.52238
G0 F6000 X42.088 Y186.338
G1 F1200 X33.66 Y177.91 E131.9188
G0 F6000 X33.66 Y177.344
G1 F1200 X42.654 Y186.338 E132.34185
G0 F6000 X43.219 Y186.338
G1 F1200 X33.66 Y176.778 E132.7915
G0 F6000 X33.66 Y176.213
G1 F1200 X43.785 Y186.338 E133.26775
G0 F6000 X44.351 Y186.338
G1 F1200 X33.66 Y175.647 E133.77062
G0 F6000 X33.66 Y175.081
G1 F1200 X44.916 Y186.338 E134.30009
G0 F6000 X45.482 Y186.338
G1 F1200 X33.66 Y174.516 E134.85616
G0 F6000 X33.66 Y173.95
G1 F1200 X46.048 Y186.338 E135.43886
G0 F6000 X46.613 Y186.338
G1 F1200 X33.66 Y173.384 E136.04815
G0 F6000 X33.66 Y172.819
G1 F1200 X47.179 Y186.338 E136.68404
G0 F6000 X47.745 Y186.338
G1 F1200 X33.66 Y172.253 E137.34656
G0 F6000 X33.66 Y171.687
G1 F1200 X48.31 Y186.338 E138.03567
G0 F6000 X48.876 Y186.338
G1 F1200 X33.66 Y171.121 E138.75141
G0 F6000 X33.66 Y170.556
G1 F1200 X49.442 Y186.338 E139.49375
G0 F6000 X50.008 Y186.338
G1 F1200 X33.66 Y169.99 E140.26271
G0 F6000 X33.66 Y169.424
G1 F1200 X50.573 Y186.338 E141.05827
G0 F6000 X51.139 Y186.338
G1 F1200 X33.66 Y168.859 E141.88043
G0 F6000 X33.66 Y168.293
G1 F1200 X51.705 Y186.338 E142.72921
G0 F6000 X52.27 Y186.338
G1 F1200 X33.66 Y167.727 E143.60459
G0 F6000 X33.66 Y167.162
G1 F1200 X52.836 Y186.338 E144.50657
G0 F6000 X53.402 Y186.338
G1 F1200 X33.66 Y166.596 E145.43517
G0 F6000 X33.66 Y166.03
G1 F1200 X53.967 Y186.338 E146.39037
G0 F6000 X54.533 Y186.338
G1 F1200 X33.66 Y165.465 E147.37218
G0 F6000 X33.66 Y164.899
G1 F1200 X55.099 Y186.338 E148.3806
G0 F6000 X55.664 Y186.338
G1 F1200 X33.66 Y164.333 E149.41562
G0 F6000 X33.66 Y163.768
G1 F1200 X56.23 Y186.338 E150.47725
G0 F6000 X56.796 Y186.338
G1 F1200 X33.66 Y163.202 E151.56549
